X:1
T: McFadden's Favourite
C:
R:Reel
Q: 232
K:G
M:4/4
L:1/8
G2 FG ((3EFG) DB,|G,A, B,D EA, A,2|DG GD EG af|ge dc Bd AF|
G2 BG EG DB,|G,A, B,D EA, A,2|DG GD EG ef|ge dc BG G2|
|:gf ga bg af|ga bg ea af|gf ga bg ag|((3efg) dc BG G2|
gf ga bg af|ga bg ea af|ga bf ge dc|Ba ag ((3efg) dB|
G2 FG ((3EFG) DB,|G,A, B,D EA, A,2|DG GD EG af|ge dc Bd AF|
G2 BG EG DB,|G,A, B,D EA, A,2|DG GD EG ef|ge dc BG G2||
